Carto/POI/SVG/education_solid_24px.svg

<svg width="24" height="24" viewBox="0 0 24 24" fill="none" xmlns="http://www.w3.org/2000/svg">
<path d="M12 14.22C14.0482 14.3149 16.0933 13.9741 18 13.22V13.51C18 18.2 15.32 22 12 22C8.68 22 6 18.2 6 13.51V13.22C7.90647 13.975 9.95172 14.3159 12 14.22ZM22 7.71L12 2L2 7.71L6 10.5V11.5C7.91804 12.2125 9.95456 12.5519 12 12.5C14.0454 12.5519 16.082 12.2125 18 11.5V10.57L19.5 9.5V17.12H21.5V8.12L22 7.71Z" fill="#0F1621"/>
</svg>

<svg xmlns="http://www.w3.org/2000/svg" width="24" height="24" viewBox="0 0 24 24"><rect width="24" height="24" style="fill:none"/><path d="M12,14.22a14.49,14.49,0,0,0,6-1v.29C18,18.2,15.32,22,12,22s-6-3.8-6-8.49v-.29A14.46,14.46,0,0,0,12,14.22ZM22,7.71,12,2,2,7.71,6,10.5v1a16.06,16.06,0,0,0,6,1,16.06,16.06,0,0,0,6-1v-.93L19.5,9.5v7.62h2v-9Z"/></svg>
